X:2518
T:Cantar de Boda (CT 374)
R:Boda
C:Tradicional
S:Música Tradicional Asturiana, (C) Tello & Tito. Asturies, 2001.
S:http://pagina.de/MusTradAst <telloytito@asturies.org>
N:Canción de Boda, transcrita en L.leitariegos.
O:L.leitariegos
A:Asturies
Z:Cancioneru de Torner 374
M:3/4
L:1/8
Q:1/4=96
W:Buenos días, los padrinos,
W:los novios y el señor cura,
W:que al a verdad representan
W:virtud, amor y hermosura.
K:Gm
^FG BB cd|(B3/2(3c/4B/4A/4 G4)|^FG BB cd|
(B3/2(3c/4B/4A/4) (GA/2_B/2 c2)|GB GB AG|^FD- D2 z2|
^FG BB cd|(B3/2(3A/4B/4A/4 G2) z2||


